X:1
T:The Well-Tempered Clavier Part I Praeludium XII
T:BWV 857
T:J. S. Bach
%%score { ( 1 2 5 ) | ( 3 4 6 ) }
L:1/8
Q:1/4=96
M:4/4
K:Ab
V:1 treble nm="Harp"
V:2 treble 
V:5 treble 
V:3 bass 
V:4 bass 
V:6 bass 
V:1
"^Andante" F/A/c/f/ G/f/=e/g/ A/c/f/e/ f2 | d2- d/d/c/B/ A>B c/4B/4c/4B/4c/4B/4A/4B/4 | %2
 c2 z/ d/G/B/ =E>F G/4F/4G/4F/4G/4F/4E/4F/4 | G/c/B/d/- d/d/c/B/ =A>B c/4B/4c/4B/4c/4B/4A/4B/4 | %4
 c4- c/c/B/d/ =G B/4A/4B/4A/4 | B4- B/A/c- c/B/d- | d/c/e- e/d/f- f/e/d/c/ B/G/A/d/ | %7
 c/4B/4c/4B/4c/4B/4c/4B/4 c/4B/4E/F/G/ A/G/A/f/ e>d | c/A/c/=e/ f/g/e/f/ g4- | %9
 g/c/f/a/ =d/f/=B/c/ c/4B/4c/4B/4c/4B/4c/ d/4c/4d/4c/4d/4c/4B/4c/4 | %10
 =d/g/f/a/- a/a/g/f/ z/ c'=b/ c'2 | e2 e/c/=d c4 | F/=A/c/e/ e/_g/c/e/ d3 c- | %13
 c/B/G/=E/ C/E/F/=B/ z/ F/=E/G/ _B/d/c/B/ | =A/F/A/c/ f>e d2- d/cB/- | %15
 B/d/c A>G F/A/c/f/- f/f/=e/g/ | A/c/f/=e/ f2 d2- d/d/c/B/ | A2- A/A/G/F/ =E4 | %18
 z/ c/B/d/ =E/d/c/B/ A/g/f/a/ =B/a/g/f/ | =e/f/g/e/ b/d/c/B/ A/B/c/F/ =d/A/G/F/ | %20
 =E2 F4 z/ _B,/C/E/ | !fermata!F8 |] %22
V:2
 F2 G2 A2 f/c/A/F/ | d/A/G/B/ =E2 F z z2 | c/A/=E/F/ D2 C z z2 | x8 | z/ F/E/_G/- G/G/F/E/ D4- | %5
 D/C/D/F/- F/F/E/D/ C2 D2 | E2 F2 G z z2 | z4 z2 z/ A/G | x8 | x8 | =d2 =B2 ee z/ g/a/g/ | %11
 e/=B/c/^F/ G>=F- F/F/=E/G/ C2 | F2 =A2 z B =E2 | F z z F c2 z2 | z2 f/B/=A z/ _A/G/B/ =EF | %15
 =E>F- F/F/E F2 G2 | A2 f/c/B/A/ d/A/G/A/ =E2 | F/E/=D/F/ =B,2 z/ C/_B,/_D/ G,/D/C/B,/ | %18
[I:staff +1] A,2 B,2 C2 A,2 | B,2 G,2 C2 =B,2 |[I:staff -1] z/ C/G,/B,/ A,2 z/ =D/=B,/C/ G,2 | %21
 [G,C]8 |] %22
V:3
 A,2 B,2 C2 A,2 | B,2 G,2 F,/A,/C/F/ G,/F/=E/G/ | A, z B,2 C,/=E,/G,/C/ D,/C/B,/D/ | %3
 =E,G, C2 F,,/=A,,/C,/F,/ _G,,/F,/_E,/_G,/ | =A,,C, A,,2 B,,2- B,,/B,,/C,/D,/ | %5
 G,,B,,G, z A,,/C,/E,/A,/ B,,/A,/G,/B,/ | C,/E,/A,/C/ D,/C/B,/D/ E,/G,/B,/E/ F,/E/D/F/ | %7
 G,/F/E/D/ C4 C/4B,/4C/4B,/4C/4B,/4C/4B,/4 | A,2- A,/ z/ z =E,/G,/B,/D/ C,/F,/E,/G,/ | %9
 A,4 G,/=B,/=D/G/ A,/G/F/A/ | =B,=D G2 C4- | C3 =B, CG,- G,/F,/=E,/G,/ | %12
 z F,2 F, B,,/D,/F,/B,/- B,/B,/A,/C/ | F,G, A,2 G,4 | F, z z2 B,2 G,2 | z/ G,/A,/=B,/ C4 _B,2 | %16
 C2 A,2 B,2 G,2 | A,2 F,2 G,2 =E,2 | F,2 G,2 A,2 F,2 | G,2 =E,2 F,4 | G,2 z/ F,/=B,,/=D,/ C,,4 | %21
 F,8 |] %22
V:4
 F,2 z2 z4 | F,4 F,2 G,2 | A,2 z2 C,2 D,2 | =E,2 CC, F,,2 _G,,2 | =A,,2 _A,,F,, z4 | %5
 z2 G,E,, A,,2 B,,2 | C,2 D,2 E,2 F,2 | G,2 A,G, F,D, E,2 | A,,2 A,,/A,/G,/F,/ =E,2 C,2 | %9
 F,2- F,/F,/E,/=D,/ G,2 A,2 | =B,2 GG, CA,E,F, | G,4 C,4 | =A,,2 F,,2 B,,2 C,2 | %13
 =D,=E, F,2 C,2- C,>_D, | E,EDC B,/F,/D,/B,,/- B,,/C,/D,/B,,/ | C,3 C, D,4 | C,8- | C,8- | C,8- | %19
 C,8- | C,2 z2[I:staff -1] G,F,[I:staff +1] z/[I:staff -1] B,3/2 |[I:staff +1] !fermata!F,,8 |] %22
V:5
 x8 | x8 | x8 | x8 | x8 | x8 | x8 | x8 | x8 | x8 | x8 | x8 | x8 | z4 z =E- E2 | x8 | x8 | x8 | x8 | %18
 x8 | x8 | x8 | x8 |] %22
V:6
 x8 | x8 | x8 | x8 | x8 | x8 | x8 | x8 | x8 | x8 | x8 | x8 | x8 | x8 | x8 | x8 | x8 | x8 | x8 | %19
 x8 | z6 z[I:staff -1] C | x8 |] %22

